X: 1
T: Sine Metu
M: 4/4
L: 1/8
R: reel
K: Edor
B2EE DEGD|Eede BEDF|EBEE DEGD|Eefe d2AF|
BBEE DEGD|Eede f2ef|geaf (3gfedB|1 AdAF E2B=c:|2 AdAF E4|]
f2fe fagf|gBgf gbag|fB^df Bdfd|~e3^d egfe|
f3e fagf|(3efggf gbag|fB^df Bdfd|1 eBAF BEEe:|2 egfd e4|]



